Grain_curve.spi1d
Version 1
From 0.0000000 1.0000000
Length 64
Components 1
{
 1.9614421
 1.9640617
 1.9580032
 1.9449407
 1.9263378
 1.9034698
 1.8774435
 1.8492160
 1.8196106
 1.7893312
 1.7589757
 1.7290468
 1.6999630
 1.6720673
 1.6456348
 1.6208806
 1.5979653
 1.5770011
 1.5580564
 1.5411604
 1.5263070
 1.5134586
 1.5025493
 1.4934880
 1.4861613
 1.4804366
 1.4761644
 1.4731815
 1.4713133
 1.4703764
 1.4701819
 1.4705375
 1.4712505
 1.4721307
 1.4729930
 1.4736603
 1.4739663
 1.4737579
 1.4728984
 1.4712690
 1.4687719
 1.4653317
 1.4608971
 1.4554422
 1.4489670
 1.4414979
 1.4330865
 1.4238087
 1.4137624
 1.4030642
 1.3918449
 1.3802440
 1.3684026
 1.3564549
 1.3445177
 1.3326788
 1.3209822
 1.3094123
 1.2978751
 1.2861768
 1.2740002
 1.2608776
 1.2461607
 1.2289876
}
